src/icons/svg/automation.svg

<?xml version="1.0" encoding="UTF-8"?>
<svg width="40px" height="40px" viewBox="0 0 40 40" version="1.1" xmlns="http://www.w3.org/2000/svg"
>
    <path d="M29.0073656,6.57920808 C28.985442,6.59193104 28.9632288,6.60414831 28.9407436,6.6158502 L25.8161706,8.42130713 C25.5100668,8.59806983 25.1462703,8.64595899 24.8048499,8.55443458 C24.4634295,8.46291018 24.1723673,8.23947333 23.9957237,7.93330076 L23.6626136,7.35702026 C23.4858509,7.05091645 23.4379617,6.68711997 23.5294861,6.34569959 C23.6210105,6.00427921 23.8444473,5.71321696 24.1506199,5.53657338 L24.9517498,5.0735503 C23.9843583,4.5620065 22.9639874,4.15765591 21.9087887,3.86769161 C18.123543,2.81393725 14.0734911,3.3277722 10.6713184,5.29340299 C3.60771804,9.3740021 1.2259806,18.492892 5.36653953,25.6664187 C5.82623152,26.4625519 2.94149776,28.1281025 2.48180582,27.3319693 C-2.57480599,18.5728384 0.339907639,7.41198343 9.00410218,2.40866923 C13.1781065,-0.00315109649 18.1466356,-0.635171047 22.7915306,0.654844387 C24.8534823,1.22113162 26.8055077,2.14717777 28.5543359,3.38801302 C28.9243431,3.46609837 29.2435702,3.69809836 29.4320811,4.02591891 L29.7651912,4.60219945 C29.9419539,4.90830326 29.989843,5.27209975 29.8983186,5.61352013 C29.8067942,5.95494051 29.5833574,6.24600276 29.2771848,6.42264634 L29.0073656,6.57920808 Z M6.40917427,32.4701931 C6.39645131,32.4482695 6.38423404,32.4260563 6.37253215,32.4035711 L6.20098042,32.1087686 C6.02421772,31.8026648 5.97632856,31.4388683 6.06785297,31.0974479 C6.15937737,30.7560276 6.38281422,30.4649653 6.68898679,30.2883217 L10.150001,28.2896609 C10.4561049,28.1128983 10.8199013,28.0650091 11.1613217,28.1565335 C11.5027421,28.2480579 11.7938044,28.4714947 11.9704479,28.7776673 L12.3035581,29.3539478 C12.4803208,29.6600516 12.5282099,30.0238481 12.4366855,30.3652685 C12.3451611,30.7066889 12.1217243,30.9977511 11.8155517,31.1743947 L10.9744486,31.6590699 C11.956063,32.1830806 12.9928388,32.5964502 14.0657106,32.8915774 C17.8511779,33.9448303 21.9012419,33.4303935 25.303181,31.4642005 C32.241865,27.4585512 34.6552479,18.5778351 30.8161537,11.4659337 C30.8007645,11.4369804 30.7852192,11.4081105 30.7695182,11.3793251 C30.6813515,11.2208655 30.7361318,11.0209917 30.892769,10.9296264 L33.2028877,9.59552035 C33.2832356,9.54935797 33.3791811,9.53875028 33.4676725,9.56624585 C33.556164,9.59374142 33.6292032,9.65685503 33.6692419,9.74042326 C38.4810178,18.4512532 35.5329931,29.4055799 26.9687316,34.3489343 C22.7951816,36.7602985 17.8273488,37.3923062 13.1829688,36.1027591 C11.077603,35.5243946 9.09226911,34.5751568 7.32023046,33.2996374 C6.98822653,33.2048121 6.70623453,32.9843565 6.53409057,32.6850492 L6.40917427,32.4685276 L6.40917427,32.4701931 Z"
          id="形状"></path>
    <path d="M16.2209332,19.6837607 L19.7519006,19.6837607 L18.0330523,14.7937039 L17.9964102,14.7937039 L16.2209332,19.6837607 Z M16.5074079,11.5092381 L19.5803489,11.5092381 L24.6769339,24.8336433 L21.5656853,24.8336433 L20.5330439,21.8656321 L15.4364588,21.8656321 L14.3705064,24.8336433 L11.3525286,24.8336433 L16.5074079,11.5092381 Z"
          id="形状"></path>
    <path d="M37.8347841,30.9528765 L38.0013392,30.9528765 C39.3337797,30.9528765 40,31.6190967 40,32.9515372 L40,33.0548014 C40,34.3872419 39.3337797,35.0534622 38.0013392,35.0534622 L37.8347841,35.0534622 C36.5023436,35.0534622 35.8361233,34.3872419 35.8361233,33.0548014 L35.8361233,32.9515372 C35.8361233,31.6190967 36.5023436,30.9528765 37.8347841,30.9528765 L37.8347841,30.9528765 Z"
          id="路径"></path>
    <path d="M29.5903084,30.9645353 L36.6988786,26.5891337 C36.9458872,26.4367653 37.2560706,26.4302273 37.5092801,26.5720524 C37.7624897,26.7138774 37.9189519,26.9817878 37.9180655,27.2720095 L37.9180655,38.7576469 C37.9177426,39.0472724 37.7608062,39.3140762 37.5078237,39.4550828 C37.2548411,39.5960895 36.9453796,39.5892452 36.6988786,39.4371915 L29.5903084,35.065121 L24.943422,35.065121 C24.0603581,35.065121 23.3444934,34.3492563 23.3444934,33.4661924 L23.3444934,32.5617984 C23.3444934,31.6790566 24.0606802,30.9628698 24.943422,30.9628698 L29.5903084,30.9628698 L29.5903084,30.9645353 Z"
          id="路径"></path>
    <path d="M26.4674009,35.065121 L29.2438738,35.065121 L29.2438738,38.3645769 C29.2438738,38.8061089 28.8859415,39.1640412 28.4444095,39.1640412 L27.2668652,39.1640412 C26.8253332,39.1640412 26.4674009,38.8061089 26.4674009,38.3645769 L26.4674009,35.065121 Z"
          id="路径"></path>
</svg>

<svg width="40" height="40" xmlns="http://www.w3.org/2000/svg"><path d="M29.007 6.58a1.654 1.654 0 0 1-.066.036L25.816 8.42a1.332 1.332 0 0 1-1.82-.488l-.333-.576a1.332 1.332 0 0 1 .488-1.82l.8-.463a15.028 15.028 0 0 0-3.042-1.206A14.624 14.624 0 0 0 10.67 5.293c-7.063 4.081-9.445 13.2-5.304 20.373.46.797-2.426 2.462-2.885 1.666C-2.575 18.572.34 7.412 9.004 2.409A17.955 17.955 0 0 1 22.792.655a18.374 18.374 0 0 1 5.762 2.733c.37.078.69.31.878.638l.333.576a1.332 1.332 0 0 1-.488 1.82l-.27.157zM6.41 32.47a1.654 1.654 0 0 1-.036-.066l-.172-.295a1.332 1.332 0 0 1 .488-1.82l3.461-2a1.332 1.332 0 0 1 1.82.489l.334.576a1.332 1.332 0 0 1-.488 1.82l-.842.485c.982.524 2.019.937 3.092 1.233a14.624 14.624 0 0 0 11.237-1.428c6.939-4.005 9.352-12.886 5.513-19.998a9.108 9.108 0 0 0-.046-.087.333.333 0 0 1 .123-.45l2.31-1.333a.333.333 0 0 1 .466.144c4.812 8.711 1.864 19.666-6.7 24.609a17.955 17.955 0 0 1-13.786 1.754A18.361 18.361 0 0 1 7.32 33.3a1.327 1.327 0 0 1-.786-.615l-.125-.216v.001z"/><path d="M16.22 19.684h3.532l-1.719-4.89h-.037l-1.775 4.89zm.287-8.175h3.073l5.097 13.325h-3.111l-1.033-2.968h-5.097l-1.065 2.968h-3.018l5.154-13.325zM37.835 30.953H38c1.333 0 1.999.666 1.999 1.999v.103c0 1.332-.666 1.998-1.999 1.998h-.166c-1.333 0-1.999-.666-1.999-1.998v-.103c0-1.333.666-2 1.999-2z"/><path d="M29.59 30.965l7.109-4.376a.8.8 0 0 1 1.22.683v11.486a.8.8 0 0 1-1.22.68l-7.109-4.373h-4.647a1.599 1.599 0 0 1-1.599-1.599v-.904a1.6 1.6 0 0 1 1.6-1.6h4.646v.003z"/><path d="M26.467 35.065h2.777v3.3a.8.8 0 0 1-.8.799h-1.177a.8.8 0 0 1-.8-.8v-3.299z"/></svg>
